X:23
T: Graf und Nonne (Die Nonne)
N: Q0155V
O: Mitteleuropa, Deutschland (BRD) , Nordrhein - Westfalen,
N: Anhaengsel an der dritten Zeile. Grundton in der zweigestrichenen
N: Oktave.
R: Ballade, Standesunterschied, vergebliche Werbung, Liebe, Klage
M: 3/4
L: 1/4
K: C
G, | G,E,G, | EDC | CB,z | z2
G, | G,B,D | FED | C3 | z2
E | GGG | GFE | FG,G, | A,G,
G, | G,B,D | FED | C3 | z2

@@@ Tune index: 1733
